X:4904
T:Pabneukirchener Flohmarkt Boarischer - schottisch/schottische/scottish
O:england
C:traditionelle Melodie, Arr. S.Wascher
N:please mail errors to: simon.wascher@chello.at
M:2/4
L:1/16
K:G
Bc|d^cdg B2B=c|d^cdg B2B=c|d2ba gfef|gfgb d2Bc|
d^cdg B2B=c|d^cdg B2Bd|=c2gf edcf|g2b2g2:|
|:dB|c2AB cdef|gfgbd4|ffff f2e2|Gd^cd e2d2|
c2AB cdef|gfgbd4|ffff fdef|G2g2g2:|


